X: 29
T: Fair Mary Mulholland
R: air, waltz
%S: s:3 b:23(8+11+8)
B: "O'Neill's 1850 #29"
Q: "With feeling"
O: J.O'Neill
Z: Norbert Paap, norbertp@bdu.uva.nl
N: Compacted via repeats and multiple endings [JC]
M: 3/8
L: 1/4
K: D
"^A"[|] D | (D2G) | (GAB)  | (=c2B) | (AGF) | (G2F) |  DzD  | D3- | Dz |]
"^B"|: =c | (B2G) | (AB^c) |  (d2e) | (B2A) | (Bcd) |[1 (AGF) | G3- | G2 :|[2 (A2F) | G3- | G |]
"^C"[| (FG) | (ABc) | (d2e)  | (=c2B) | (AGF) | (G2F) |  D2D  | D3- | D2    |]
